src/assets/svg/logo-defi.svg

<?xml version="1.0" encoding="UTF-8"?>
<svg width="70px" height="32px" viewBox="0 0 70 32" version="1.1" xmlns="http://www.w3.org/2000/svg" xmlns:xlink="http://www.w3.org/1999/xlink">
    <!-- Generator: Sketch 63.1 (92452) - https://sketch.com -->
    <title>Group 6</title>
    <desc>Created with Sketch.</desc>
    <g id="----DeFi-Chain-UI" stroke="none" stroke-width="1" fill="none" fill-rule="evenodd">
        <g id="exchange" transform="translate(-74.000000, -94.000000)" fill="#5B10FF">
            <g id="Group-10" transform="translate(56.000000, 38.000000)">
                <g id="sidebar">
                    <g id="o-o-o">
                        <g id="Group-6" transform="translate(18.000000, 56.000000)">
                            <path d="M19.5468444,27.9271111 L19.5468444,4.07288889 C24.6819556,5.60711111 28.4357333,10.3733333 28.4357333,16 C28.4357333,21.6266667 24.6819556,26.3937778 19.5468444,27.9271111 M15.9912889,0 L15.9912889,13.4853333 L13.9601778,11.4542222 L13.7006222,6.38488889 L15.8188444,0.00888888889 C14.4606222,0.0231111111 13.1486222,0.216888889 11.8926222,0.550222222 L10.8677333,3.632 L7.96284444,2.17511111 C6.81351111,2.84444444 5.7504,3.64533333 4.80551111,4.57066667 L10.1859556,7.26666667 L10.3432889,10.352 L7.25884444,10.1937778 L4.56195556,4.81422222 C3.63751111,5.75911111 2.83573333,6.82133333 2.1664,7.97155556 L3.62417778,10.8773333 L0.540622222,11.9013333 C0.208177778,13.1573333 0.0144,14.4693333 0.000177777778,15.8275556 L6.37706667,13.7093333 L11.4464,13.968 L13.4775111,16 L11.4464,18.032 L6.37706667,18.2906667 L0.000177777778,16.1724444 C0.0144,17.5306667 0.208177778,18.8426667 0.540622222,20.0986667 L3.62417778,21.1226667 L2.1664,24.0284444 C2.83573333,25.1786667 3.63751111,26.2408889 4.56195556,27.1857778 L7.25884444,21.8062222 L10.3432889,21.648 L10.1859556,24.7324444 L4.80551111,27.4293333 C5.7504,28.3537778 6.81351111,29.1546667 7.96284444,29.8248889 L10.8677333,28.368 L11.8926222,31.4497778 C13.1486222,31.7822222 14.4606222,31.9768889 15.8188444,31.9911111 L13.7006222,25.6151111 L13.9601778,20.5457778 L15.9912889,18.5146667 L15.9912889,32 C24.8277333,32 31.9912889,24.8364444 31.9912889,16 C31.9912889,7.16355556 24.8277333,0 15.9912889,0" id="Fill-1"></path>
                            <polygon id="Fill-3" points="65.7777778 29.3333333 69.3333333 29.3333333 69.3333333 2.66666667 65.7777778 2.66666667"></polygon>
                            <polygon id="Fill-5" points="50.6666667 29.3334222 54.2222222 29.3334222 54.2222222 17.7778667 60.4444444 17.7778667 60.4444444 14.2223111 54.2222222 14.2223111 54.2222222 6.22231111 62.2222222 6.22231111 62.2222222 2.66675556 50.6666667 2.66675556"></polygon>
                            <polygon id="Fill-5" points="35.5555556 29.3334222 47.1111111 29.3334222 47.1111111 25.7777778 39.1111111 25.7777778 39.1111111 17.7778667 45.3333333 17.7778667 45.3333333 14.2223111 39.1111111 14.2223111 39.1111111 6.22231111 47.1111111 6.22231111 47.1111111 2.66675556 35.5555556 2.66675556"></polygon>
                        </g>
                    </g>
                </g>
            </g>
        </g>
    </g>
</svg>

<svg height="32" width="70" xmlns="http://www.w3.org/2000/svg"><g fill="currentColor" fill-rule="evenodd"><path d="M19.547 27.927V4.073c5.135 1.534 8.889 6.3 8.889 11.927s-3.754 10.394-8.89 11.927M15.992 0v13.485l-2.03-2.03-.26-5.07L15.819.009c-1.358.014-2.67.208-3.926.541l-1.025 3.082-2.905-1.457c-1.15.67-2.213 1.47-3.157 2.396l5.38 2.696.157 3.085-3.084-.158-2.697-5.38a16.056 16.056 0 0 0-2.396 3.158l1.458 2.905-3.083 1.024A15.965 15.965 0 0 0 0 15.828l6.376-2.119 5.07.259L13.476 16l-2.03 2.032-5.07.259L0 16.172c.014 1.359.208 2.67.54 3.927l3.084 1.024-1.458 2.905a16.056 16.056 0 0 0 2.396 3.158l2.697-5.38 3.084-.158-.157 3.084-5.38 2.697a16.117 16.117 0 0 0 3.157 2.396l2.905-1.457 1.025 3.082c1.256.332 2.568.527 3.926.541L13.7 25.615l.26-5.07 2.03-2.03V32c8.837 0 16-7.164 16-16s-7.163-16-16-16m49.788 29.333h3.555V2.667h-3.555zm-15.111 0h3.555V17.778h6.222v-3.556h-6.222v-8h8V2.667H50.667zm-15.111 0H47.11v-3.555h-8v-8h6.222v-3.556h-6.222v-8h8V2.667H35.556z"/></g></svg>
